svg/devopicons/aws.svg

<svg version="1.1" xmlns="http://www.w3.org/2000/svg" xmlns:xlink="http://www.w3.org/1999/xlink" x="0px" y="0px" width="512px" height="512px"><path d="M139.4781799,457.0312805l-63.668808-22.837738v-93.328186l63.668808,21.690918V457.0312805z M151.1442108,457.0312805l63.668808-22.837738v-93.328186l-63.668808,21.690918V457.0312805z M82.3344345,333.8657532l64.439949-18.1317749l59.7537689,19.2588196l-59.7537689,20.2870178L82.3344345,333.8657532z M63.6688042,326.6486511L0,303.8109131v-93.3281708l63.6688042,21.6908875V326.6486511z M75.3545914,326.6486511l63.6688004-22.837738v-93.3281708l-63.668808,21.6908875L75.3545914,326.6486511z M6.5448289,203.4831238l64.4399414-18.1317596l59.7537689,19.278595l-59.7537689,20.2870331L6.5448289,203.4831238z M212.2425079,326.6486511l-63.6885681-22.837738v-93.3281708l63.6885681,21.6908875V326.6486511z M223.9283142,326.6486511l63.6687927-22.837738v-93.3281708l-63.668808,21.6908875L223.9283142,326.6486511z M155.1185455,203.4831238l64.4399414-18.1317596l59.7537689,19.278595l-59.7537842,20.2870331L155.1185455,203.4831238z M288.0519104,196.2462311l-63.6688232-22.8377228V80.0803452l63.6688232,21.6908951V196.2462311z M299.7377014,196.2462311l63.6687927-22.8377228V80.0803452l-63.6687927,21.6908951V196.2462311z M230.9279327,73.1004868l64.4399567-18.1317635l59.7537537,19.2588234l-59.7537537,20.2870178L230.9279327,73.1004868z M436.6256104,196.2462311l-63.6687622-22.8377228V80.0803452l63.6687622,21.6908951V196.2462311z M448.3114014,196.2462311L512,173.4085083V80.0803452l-63.6885986,21.6908951V196.2462311z M379.5016479,73.1004868l64.4399719-18.1317635l59.7537537,19.2588234l-59.7537537,20.2870178L379.5016479,73.1004868z"/></svg>

<svg xmlns="http://www.w3.org/2000/svg" width="512" height="512"><path d="M139.478 457.031 75.81 434.194v-93.329l63.67 21.691v94.475zm11.666 0 63.669-22.837v-93.329l-63.669 21.691v94.475zm-68.81-123.165 64.44-18.132 59.754 19.259-59.754 20.287-64.44-21.414zm-18.665-7.217L0 303.81v-93.328l63.669 21.69v94.476zm11.686 0 63.668-22.838v-93.328l-63.668 21.69v94.476zM6.545 203.483l64.44-18.132 59.754 19.279-59.754 20.287-64.44-21.434zM212.243 326.65l-63.69-22.838v-93.328l63.69 21.69v94.476zm11.685 0 63.67-22.838v-93.328l-63.67 21.69v94.476zm-68.81-123.166 64.44-18.132 59.754 19.279-59.754 20.287-64.44-21.434zm132.934-7.237-63.669-22.837V80.08l63.669 21.691v94.475zm11.686 0 63.668-22.837V80.08l-63.668 21.691v94.475zM230.928 73.1l64.44-18.131 59.754 19.259-59.754 20.287-64.44-21.415zm205.698 123.146-63.67-22.837V80.08l63.67 21.691v94.475zm11.685 0L512 173.41V80.08l-63.689 21.691v94.475zM379.501 73.1l64.44-18.131 59.754 19.259-59.753 20.287-64.44-21.415z"/></svg>
